X:5
T:Wohlfahrt 5 (Op. 45 No. 2 )
C:Franz Wohlfahrt / K.H. Aiquoni
L:1/8
Q:1/4=100
M:4/4
I:linebreak $
K:C
"C" CEAG FEDC |"G7" B,CDC B,G,A,B, |"C" CEAG FEDC |"G7" B,CDC B,G,A,B, |"C" CEAG FEDE | 
"F" FAdc BAGF |"C" EGFE"G7" DFED |"C" CG,A,B, CDE^F |"G" GBed cBAG |"D7" ^FGAG FDEF | 
"G" GBed cBAG |"D7" ^FGAG FDEF |"G" GBed cBAB |"C" ceag ^fedc |"G" BdcB"D7" AcBA |"G" GBed cBAG | 
"G7" =FBdc BAGF |"C" EGcB AGFE |"G7" DFBA GFED |"C" CEAG FEDC |"G7" B,CDC B,G,A,B, |"C" CEAG FEDE | 
"F" FAdc BAGF |"C" EGFE"G7" DFED | C"C"EGE C z z2 |] 



